X:63
M:4/4
L:1/4
K:G
G2 G D | G c B A | G2 z G | A c B A | (E F) G2 | G2 G D | G c B A | G2 z G | A c B A | (E F) G2 | z G c B | c d d ^c | d2 z d | e c d3/2 c/ | B A G2 | z !sintro!B A D | G A (B A) | G4 !eintro!|]
